src/icon-mask.svg

<?xml version="1.0" encoding="UTF-8" standalone="no"?>
<!DOCTYPE svg PUBLIC "-//W3C//DTD SVG 1.1//EN" "http://www.w3.org/Graphics/SVG/1.1/DTD/svg11.dtd">
<svg width="100%" height="100%" viewBox="0 0 1792 1792" version="1.1" xmlns="http://www.w3.org/2000/svg" xmlns:xlink="http://www.w3.org/1999/xlink" xml:space="preserve" style="fill-rule:evenodd;clip-rule:evenodd;stroke-linejoin:round;stroke-miterlimit:1.41421;">
    <g transform="matrix(1,0,0,1,64,64)">
        <path d="M704,1536L800,1088L704,960L576,896L704,1536ZM960,1536L1088,896L960,960L864,1088L960,1536ZM1120,526C1118.67,523.333 1117.33,521.333 1116,520C1109.33,514.667 1077.33,512 1020,512C973.333,512 917.667,518.333 853,531C848.333,532.333 841.333,533 832,533C822.667,533 815.667,532.333 811,531C746.333,518.333 690.667,512 644,512C586.667,512 554.667,514.667 548,520C546.667,521.333 545.333,523.333 544,526C545.333,538 546.667,547 548,553C549.333,555 551.833,557.167 555.5,559.5C559.167,561.833 561.667,565.333 563,570C564.333,572.667 566.833,579.5 570.5,590.5C574.167,601.5 576.5,608.333 577.5,611C578.5,613.667 581,619.333 585,628C589,636.667 591.833,642.333 593.5,645C595.167,647.667 598.167,652.333 602.5,659C606.833,665.667 610.833,670.167 614.5,672.5C618.167,674.833 622.833,678 628.5,682C634.167,686 640,688.667 646,690C652,691.333 658.833,692.667 666.5,694C674.167,695.333 682.333,696 691,696C715,696 734.667,691.833 750,683.5C765.333,675.167 776.167,665.167 782.5,653.5C788.833,641.833 793.667,630.333 797,619C800.333,607.667 804.167,597.833 808.5,589.5C812.833,581.167 818.667,577 826,577L838,577C845.333,577 851.167,581.167 855.5,589.5C859.833,597.833 863.667,607.667 867,619C870.333,630.333 875.167,641.833 881.5,653.5C887.833,665.167 898.667,675.167 914,683.5C929.333,691.833 949,696 973,696C981.667,696 989.833,695.333 997.5,694C1005.17,692.667 1012,691.333 1018,690C1024,688.667 1029.83,686 1035.5,682C1041.17,678 1045.83,674.833 1049.5,672.5C1053.17,670.167 1057.17,665.667 1061.5,659C1065.83,652.333 1068.83,647.667 1070.5,645C1072.17,642.333 1075,636.667 1079,628C1083,619.333 1085.5,613.667 1086.5,611C1087.5,608.333 1089.83,601.5 1093.5,590.5C1097.17,579.5 1099.67,572.667 1101,570C1102.33,565.333 1104.83,561.833 1108.5,559.5C1112.17,557.167 1114.67,555 1116,553C1117.33,547 1118.67,538 1120,526ZM1536,1405C1536,1485.67 1511.67,1549 1463,1595C1414.33,1641 1349.67,1664 1269,1664L395,1664C314.333,1664 249.667,1641 201,1595C152.333,1549 128,1485.67 128,1405C128,1364.33 129.5,1325 132.5,1287C135.5,1249 141.833,1207.17 151.5,1161.5C161.167,1115.83 173.667,1074.67 189,1038C204.333,1001.33 225.5,966.833 252.5,934.5C279.5,902.167 310.667,877.333 346,860L256,640L470,640C455.333,597.333 448,554.667 448,512C448,504 448.667,493.333 450,480C320.667,453.333 256,421.333 256,384C256,346 326,313 466,285C477.333,243.667 494.5,199 517.5,151C540.5,103 564,65 588,37C609.333,12.333 634.667,0 664,0C684,0 712,10.333 748,31C784,51.667 812,62 832,62C852,62 880,51.667 916,31C952,10.333 980,0 1000,0C1029.33,0 1054.67,12.333 1076,37C1100,65 1123.5,103 1146.5,151C1169.5,199 1186.67,243.667 1198,285C1338,313 1408,346 1408,384C1408,421.333 1343.33,453.333 1214,480C1218.67,534 1212,587.333 1194,640L1408,640L1326,865C1368,887 1403.83,919.167 1433.5,961.5C1463.17,1003.83 1485,1051.67 1499,1105C1513,1158.33 1522.67,1208.83 1528,1256.5C1533.33,1304.17 1536,1353.67 1536,1405Z" style="fill:#00000;fill-rule:nonzero;"/>
    </g>
</svg>

<svg fill="#29323D" width="1792" height="1792" viewBox="0 0 1792 1792" xmlns="http://www.w3.org/2000/svg"><path d="M704 1536l96-448-96-128-128-64zm256 0l128-640-128 64-96 128zm160-1010q-2-4-4-6-10-8-96-8-70 0-167 19-7 2-21 2t-21-2q-97-19-167-19-86 0-96 8-2 2-4 6 2 18 4 27 2 3 7.5 6.5t7.5 10.5q2 4 7.5 20.5t7 20.5 7.5 17 8.5 17 9 14 12 13.5 14 9.5 17.5 8 20.5 4 24.5 2q36 0 59-12.5t32.5-30 14.5-34.5 11.5-29.5 17.5-12.5h12q11 0 17.5 12.5t11.5 29.5 14.5 34.5 32.5 30 59 12.5q13 0 24.5-2t20.5-4 17.5-8 14-9.5 12-13.5 9-14 8.5-17 7.5-17 7-20.5 7.5-20.5q2-7 7.5-10.5t7.5-6.5q2-9 4-27zm416 879q0 121-73 190t-194 69h-874q-121 0-194-69t-73-190q0-61 4.5-118t19-125.5 37.5-123.5 63.5-103.5 93.5-74.5l-90-220h214q-22-64-22-128 0-12 2-32-194-40-194-96 0-57 210-99 17-62 51.5-134t70.5-114q32-37 76-37 30 0 84 31t84 31 84-31 84-31q44 0 76 37 36 42 70.5 114t51.5 134q210 42 210 99 0 56-194 96 7 81-20 160h214l-82 225q63 33 107.5 96.5t65.5 143.5 29 151.5 8 148.5z"/></svg>
